icons/i_groups_perspective_crowd.svg

<svg width="48" height="48" viewBox="0 0 48 48" fill="none" xmlns="http://www.w3.org/2000/svg">
<path fill-rule="evenodd" clip-rule="evenodd" d="M28 16C28 18.21 26.21 20 24 20C21.79 20 20 18.21 20 16C20 13.79 21.79 12 24 12C26.21 12 28 13.79 28 16ZM26 16C26 17.1054 25.1054 18 24 18C22.8946 18 22 17.1054 22 16C22 14.8946 22.8946 14 24 14C25.1054 14 26 14.8946 26 16Z" fill="black"/>
<path fill-rule="evenodd" clip-rule="evenodd" d="M18 17.5C18 19.9862 15.9862 22 13.5 22C11.0138 22 9 19.9862 9 17.5C9 15.0137 11.0138 13 13.5 13C15.9862 13 18 15.0137 18 17.5ZM16 17.5C16 18.8817 14.8817 20 13.5 20C12.1183 20 11 18.8817 11 17.5C11 16.1183 12.1183 15 13.5 15C14.8817 15 16 16.1183 16 17.5Z" fill="black"/>
<path fill-rule="evenodd" clip-rule="evenodd" d="M4 29.4545C4 25.8273 10.6625 24 14 24C14.8012 24 15.794 24.1053 16.8403 24.3155C18.133 23.3095 20.673 22 24 22C27.327 22 29.867 23.3095 31.1597 24.3155C32.206 24.1053 33.1988 24 34 24C37.3375 24 44 25.8273 44 29.4545V36H4V29.4545ZM6 29.4545C6 29.2178 6.09388 28.9026 6.51219 28.4814C6.94877 28.0418 7.64026 27.597 8.54933 27.1997C10.3782 26.4004 12.6054 26 14 26C15.3946 26 17.6218 26.4004 19.4507 27.1997C20.3597 27.597 21.0512 28.0418 21.4878 28.4814C21.9061 28.9026 22 29.2178 22 29.4545V34H6V29.4545ZM28.5508 25.0454C27.4324 24.4953 25.8752 24 24 24C22.1248 24 20.5676 24.4953 19.4492 25.0454C21.8895 25.9417 24 27.413 24 29.4545C24 27.413 26.1105 25.9417 28.5508 25.0454ZM26.5122 28.4814C26.0939 28.9026 26 29.2178 26 29.4545V34H42V29.4545C42 29.2178 41.9061 28.9026 41.4878 28.4814C41.0512 28.0418 40.3597 27.597 39.4507 27.1997C37.6218 26.4004 35.3946 26 34 26C32.6054 26 30.3782 26.4004 28.5493 27.1997C27.6403 27.597 26.9488 28.0418 26.5122 28.4814Z" fill="black"/>
<path fill-rule="evenodd" clip-rule="evenodd" d="M34.5 22C36.9863 22 39 19.9862 39 17.5C39 15.0137 36.9863 13 34.5 13C32.0138 13 30 15.0137 30 17.5C30 19.9862 32.0138 22 34.5 22ZM34.5 20C35.8817 20 37 18.8817 37 17.5C37 16.1183 35.8817 15 34.5 15C33.1183 15 32 16.1183 32 17.5C32 18.8817 33.1183 20 34.5 20Z" fill="black"/>
</svg>

<svg
  xmlns="http://www.w3.org/2000/svg"
  width="24"
  height="24"
  viewBox="0 0 24 24"
  fill="none"
  stroke="currentColor"
  stroke-width="2"
  stroke-linecap="round"
  stroke-linejoin="round"
>
  <path
    fill-rule="evenodd"
    d="M28 16c0 2.21-1.79 4-4 4s-4-1.79-4-4 1.79-4 4-4 4 1.79 4 4m-2 0a1.999 1.999 0 1 1-4 0 1.999 1.999 0 1 1 4 0"
    clip-rule="evenodd"
  />
  <path
    fill-rule="evenodd"
    d="M18 17.5c0 2.486-2.014 4.5-4.5 4.5A4.5 4.5 0 0 1 9 17.5c0-2.486 2.014-4.5 4.5-4.5s4.5 2.014 4.5 4.5m-2 0c0 1.382-1.118 2.5-2.5 2.5a2.5 2.5 0 0 1-2.5-2.5c0-1.382 1.118-2.5 2.5-2.5s2.5 1.118 2.5 2.5"
    clip-rule="evenodd"
  />
  <path
    fill-rule="evenodd"
    d="M4 29.455C4 25.827 10.663 24 14 24c.801 0 1.794.105 2.84.316C18.133 23.31 20.673 22 24 22s5.867 1.31 7.16 2.316C32.206 24.106 33.199 24 34 24c3.337 0 10 1.827 10 5.454V36H4zm2 0c0-.237.094-.552.512-.974.437-.44 1.128-.884 2.037-1.281C10.38 26.4 12.605 26 14 26s3.622.4 5.45 1.2c.91.397 1.601.842 2.038 1.281.418.422.512.737.512.973V34H6zm22.55-4.41A10.3 10.3 0 0 0 24 24c-1.875 0-3.432.495-4.55 1.045 2.44.897 4.55 2.368 4.55 4.41 0-2.042 2.11-3.513 4.55-4.41m-2.038 3.436c-.418.422-.512.737-.512.973V34h16v-4.546c0-.236-.094-.551-.512-.973-.437-.44-1.128-.884-2.037-1.281C37.62 26.4 35.395 26 34 26s-3.622.4-5.45 1.2c-.91.397-1.601.842-2.038 1.281"
    clip-rule="evenodd"
  />
  <path
    fill-rule="evenodd"
    d="M34.5 22c2.486 0 4.5-2.014 4.5-4.5S36.986 13 34.5 13a4.5 4.5 0 0 0-4.5 4.5c0 2.486 2.014 4.5 4.5 4.5m0-2c1.382 0 2.5-1.118 2.5-2.5S35.882 15 34.5 15a2.5 2.5 0 0 0-2.5 2.5c0 1.382 1.118 2.5 2.5 2.5"
    clip-rule="evenodd"
  />
</svg>
